src/assets/images/ALINA_HUZ--black.svg

<svg width="164" height="12" viewBox="0 0 164 12" fill="none"
     xmlns="http://www.w3.org/2000/svg">
    <g clip-path="url(#clip0_7_154)">
        <path fill-rule="evenodd" clip-rule="evenodd"
              d="M6.27146 9.87273L5.13836 11.6364H0.136475L7.93942 0H10.4822V1.21818V3.31874L8.02366 7.14546H12.9609H16.6518H17.832L20.8716 11.6364H15.8697L14.7274 9.87273H6.27146ZM26.8767 8.18182V0H22.3295V11.6364H37.4807V8.18182H26.8767ZM44.308 0H39.7609V11.6364H44.308V0ZM63.6775 7.0757V0H68.2247V11.6364H63.6775L51.673 4.68816V11.6364H47.1258V0H51.673L63.6775 7.0757ZM75.8111 9.87273L74.678 11.6364H69.6762L77.4791 0H80.0219V1.21818V3.31874L77.5633 7.14546H82.5005H86.1915H87.3717L90.4113 11.6364H85.4094L84.267 9.87273H75.8111ZM102.047 7.47273V11.6364H97.4998V0H102.047V4.01818H113.688V0H118.235V11.6364H113.688V7.47273H102.047ZM141.103 8.45455C141.32 8.04747 141.477 7.59292 141.572 7.09091H136.523C136.487 7.13482 136.449 7.17725 136.41 7.21818C135.938 7.72727 135.258 8.0788 134.373 8.27273C133.488 8.45455 132.445 8.54546 131.245 8.54546C130.008 8.54546 128.947 8.45455 128.062 8.27273C127.189 8.0788 126.516 7.72727 126.043 7.21818C125.57 6.70909 125.334 5.96971 125.334 5V0H120.786V5.81818C120.786 6.84847 120.968 7.72727 121.332 8.45455C121.708 9.16971 122.223 9.76364 122.878 10.2364C123.533 10.697 124.297 11.0545 125.17 11.3091C126.055 11.5636 127.013 11.7394 128.044 11.8364C129.074 11.9455 130.142 12 131.245 12C132.288 12 133.312 11.9455 134.319 11.8364C135.337 11.7394 136.289 11.5636 137.174 11.3091C138.059 11.0545 138.842 10.697 139.521 10.2364C140.2 9.76364 140.727 9.16971 141.103 8.45455ZM150.602 0H144.233V3.45455H150.602H155.718L150.602 5.56L144.233 8.18182V11.6364H150.602H157.057H163.513V8.18182H157.057H152.075L157.057 6.1225L163.513 3.45455V0H157.057H150.602Z"
              fill="#0C0C0C"/>
    </g>
    <defs>
        <clipPath id="clip0_7_154">
            <rect width="163.698" height="12" fill="0C0C0C"/>
        </clipPath>
    </defs>
</svg>

<svg xmlns="http://www.w3.org/2000/svg" width="164" height="12" fill="none" xmlns:v="https://vecta.io/nano"><g clip-path="url(#A)"><path fill-rule="evenodd" d="M6.271 9.873l-1.133 1.764H.136L7.939 0h2.543v1.218 2.101L8.024 7.145h4.937 3.691 1.18l3.04 4.491H15.87l-1.142-1.764H6.271zm20.605-1.691V0H22.33v11.636h15.151V8.182H26.877zM44.308 0h-4.547v11.636h4.547V0zm19.37 7.076V0h4.547v11.636h-4.547L51.673 4.688v6.948h-4.547V0h4.547l12.005 7.076zm12.134 2.797l-1.133 1.764h-5.002L77.479 0h2.543v1.218 2.101l-2.459 3.827h4.937 3.691 1.18l3.04 4.491h-5.002l-1.142-1.764h-8.456zm26.236-2.4v4.164H97.5V0h4.547v4.018h11.641V0h4.547v11.636h-4.547V7.473h-11.641zm39.056.982c.217-.407.374-.862.469-1.364h-5.049l-.113.127c-.472.509-1.152.861-2.037 1.055-.885.182-1.928.273-3.128.273-1.237 0-2.298-.091-3.183-.273-.873-.194-1.546-.545-2.019-1.055s-.709-1.248-.709-2.218V0h-4.548v5.818c0 1.03.182 1.909.546 2.636a5.09 5.09 0 0 0 1.546 1.782c.655.461 1.419.818 2.292 1.073.885.254 1.843.43 2.874.527 1.03.109 2.098.164 3.201.164 1.043 0 2.067-.055 3.074-.164 1.018-.097 1.97-.273 2.855-.527s1.668-.612 2.347-1.073c.679-.473 1.206-1.067 1.582-1.782zM150.602 0h-6.369v3.455h6.369 5.116l-5.116 2.105-6.369 2.622v3.455h6.369 6.455 6.456V8.182h-6.456-4.982l4.982-2.059 6.456-2.668V0h-6.456-6.455z" fill="#0c0c0c"/></g><defs><clipPath id="A"><path fill="0c0c0c" d="M0 0h163.698v12H0z"/></clipPath></defs></svg>
